icons-rebrand/svg/live-light.svg

<svg width="32" height="32" viewBox="0 0 32 32" fill="none" xmlns="http://www.w3.org/2000/svg">
<path d="M7.53 12.4H6.5V19.6H10.92V18.69H7.53V12.4Z" fill="#0F0F0F"/>
<path d="M13.0376 12.4H12.0176V19.6H13.0376V12.4Z" fill="#0F0F0F"/>
<path d="M19.2571 12.4H20.2571L17.6771 19.6H16.4071L13.7871 12.4H14.8671L17.0471 18.64L19.2571 12.4Z" fill="#0F0F0F"/>
<path d="M25.2117 16.36V15.52H22.0317V13.26H25.5017V12.4H21.0117V19.6H25.5017V18.74H22.0317V16.36H25.2117Z" fill="#0F0F0F"/>
<path d="M7 6.49976H25C26.1931 6.50106 27.3369 6.97558 28.1805 7.81921C29.0242 8.66284 29.4987 9.80668 29.5 10.9998V20.9998C29.4987 22.1928 29.0242 23.3367 28.1805 24.1803C27.3369 25.0239 26.1931 25.4985 25 25.4998H7C5.80693 25.4985 4.66309 25.0239 3.81946 24.1803C2.97583 23.3367 2.5013 22.1928 2.5 20.9998V10.9998C2.5013 9.80668 2.97582 8.66284 3.81945 7.81921C4.66309 6.97558 5.80692 6.50106 7 6.49976ZM27.4736 23.4734C28.1298 22.8173 28.4989 21.9277 28.5 20.9998V10.9998C28.4989 10.0718 28.1298 9.18226 27.4736 8.52612C26.8175 7.86999 25.9279 7.50088 25 7.49976H7C6.07209 7.50088 5.1825 7.86999 4.52637 8.52612C3.87023 9.18226 3.50112 10.0718 3.5 10.9998V20.9998C3.50112 21.9277 3.87023 22.8173 4.52637 23.4734C5.1825 24.1295 6.07209 24.4986 7 24.4998H25C25.9279 24.4986 26.8175 24.1295 27.4736 23.4734Z" fill="#0F0F0F"/>
</svg>

<svg xmlns="http://www.w3.org/2000/svg" width="32" height="32" viewBox="0 0 32 32"><path fill-rule="evenodd" d="M7 6.5h18a4.505 4.505 0 0 1 4.5 4.5v10a4.505 4.505 0 0 1-4.5 4.5H7A4.505 4.505 0 0 1 2.5 21V11A4.505 4.505 0 0 1 7 6.5Zm20.474 16.973A3.504 3.504 0 0 0 28.5 21V11A3.504 3.504 0 0 0 25 7.5H7A3.504 3.504 0 0 0 3.5 11v10A3.504 3.504 0 0 0 7 24.5h18a3.505 3.505 0 0 0 2.474-1.027ZM7.53 12.4H6.5v7.2h4.42v-.91H7.53V12.4Zm5.508 0h-1.02v7.2h1.02v-7.2Zm6.22 0h1l-2.58 7.2h-1.27l-2.62-7.2h1.08l2.18 6.24 2.21-6.24Zm5.954 3.96v-.84h-3.18v-2.26h3.47v-.86h-4.49v7.2h4.49v-.86h-3.47v-2.38h3.18Z" clip-rule="evenodd"/></svg>
